shader perturbCoords

    [[ string as_node_name = "linear_remap vector"
    ,  string as_classification = "utility" ]]
(
    point in_P = P
    [[ string label = "Coordinates" ]],

    vector in_D = 0
    [[ string label = "perturb" ]],

	float in_Intensity = 0.0 [[ string label = "Intensity" ]],

    output point out_P = in_P
)
{
    out_P = in_Intensity*in_D + in_P;
}
