#include "math.h"

shader translateM (
    vector inV = 0
    [[ string label = "Input vector"]],

    matrix inM = matrix(1)
    [[ string label = "Input Matrix"]],

    output matrix outM = 1
)
{
    matrix m = matrix(1);
    m[0][3] = inV[0];
    m[1][3] = inV[1];
    m[2][3] = inV[2];
    outM = inM * m;
}
